src/img/leamo_logo.svg

<?xml version="1.0" encoding="UTF-8"?>
<svg width="228px" height="56.6997843px" viewBox="0 0 228 56.6997843" version="1.1" xmlns="http://www.w3.org/2000/svg" xmlns:xlink="http://www.w3.org/1999/xlink">
    <title>Leamo-Logo</title>
    <g id="Page-1" stroke="none" stroke-width="1" fill="none" fill-rule="evenodd">
        <g id="index-copy-9" transform="translate(-100.000000, -70.000000)" fill="#000000" fill-rule="nonzero">
            <g id="nav" transform="translate(0.000000, 70.000000)">
                <g id="Leamo-Logo" transform="translate(100.000000, 0.000000)">
                    <path d="M200.52715,44.7289765 C199.020663,42.5377222 198.281115,39.333013 198.281115,35.1422393 C198.281115,31.006247 199.048054,27.8289284 200.581932,25.6650649 C202.11581,23.5012013 204.416627,22.4055742 207.539164,22.4055742 C210.63431,22.4055742 212.962518,23.5012013 214.496396,25.6650649 C216.030274,27.8289284 216.797213,31.006247 216.797213,35.1422393 C216.797213,39.2782316 216.030274,42.4829409 214.496396,44.7015858 C212.962518,46.9202307 210.661701,48.0432484 207.539164,48.0432484 C204.361845,48.0158578 202.006247,46.9202307 200.52715,44.7289765 M215.975493,55.2469966 C218.522826,54.2609322 220.686689,52.836617 222.467083,50.9740509 C224.247477,49.1114849 225.617011,46.8380586 226.575685,44.1811629 C227.534358,41.5242672 228,38.483902 228,35.1148486 C228,31.8005766 227.534358,28.8149928 226.603075,26.1307064 C225.671792,23.4738107 224.302259,21.2003844 222.521864,19.365209 C220.74147,17.5300336 218.577607,16.1057184 216.030274,15.119654 C213.482941,14.1335896 210.63431,13.6405574 207.484383,13.6405574 C204.389236,13.6405574 201.540605,14.1335896 199.020663,15.119654 C196.47333,16.1057184 194.309467,17.5300336 192.529073,19.365209 C190.748679,21.2003844 189.379145,23.44642 188.420471,26.1307064 C187.461797,28.7876021 186.996156,31.8005766 186.996156,35.1148486 C186.996156,42.0446901 188.77655,47.3858722 192.364728,51.1110043 C195.952907,54.8361365 200.992792,56.6987025 207.511773,56.6987025 C210.60692,56.7260932 213.45555,56.233061 215.975493,55.2469966 M123.504565,55.4935127 L134.378664,55.4935127 L134.378664,31.088419 C134.378664,29.9106199 134.59779,28.7876021 135.03604,27.774147 C135.474291,26.760692 136.049495,25.8841903 136.789044,25.1720327 C137.665545,24.295531 138.569438,23.6655454 139.47333,23.3094666 C140.377222,22.9533878 141.390678,22.7616531 142.458914,22.7616531 C143.143681,22.7616531 143.773667,22.8712158 144.403652,23.0629505 C145.033638,23.2820759 145.554061,23.6381547 145.992311,24.1585776 C146.430562,24.6790005 146.786641,25.3911581 147.033157,26.2950505 C147.279673,27.1989428 147.416627,28.376742 147.416627,29.8284479 L147.416627,55.4935127 L158.290726,55.4935127 L158.290726,30.6227775 C158.290726,29.5819318 158.509851,28.5958674 158.948102,27.6645843 C159.386353,26.7333013 159.961557,25.911581 160.701105,25.1720327 C161.577607,24.295531 162.481499,23.6655454 163.385392,23.3094666 C164.289284,22.9533878 165.302739,22.7616531 166.370975,22.7616531 C167.055742,22.7616531 167.685728,22.8712158 168.315714,23.0629505 C168.945699,23.2820759 169.466122,23.6381547 169.904373,24.1585776 C170.342624,24.6790005 170.698703,25.3911581 170.945219,26.2950505 C171.191735,27.1989428 171.328688,28.376742 171.328688,29.8284479 L171.328688,55.4935127 L182.202787,55.4935127 L182.202787,28.376742 C182.202787,23.1999039 181.161941,19.4473811 179.052859,17.1465642 C176.943777,14.8457472 173.793849,13.6953388 169.603075,13.6953388 C167.110524,13.6953388 164.837098,14.2431523 162.755406,15.3387794 C160.673715,16.4344065 158.701586,18.2148006 156.83902,20.7073522 C156.072081,18.433926 154.729938,16.6809226 152.867371,15.5031235 C151.004805,14.3253244 148.594426,13.7227295 145.636233,13.7227295 C143.417588,13.7227295 141.281115,14.270543 139.254205,15.3661701 C137.227295,16.4617972 135.474291,18.1326285 133.967804,20.4060548 L133.967804,14.9279193 L123.395002,14.9279193 L123.395002,55.4935127 L123.504565,55.4935127 Z M106.878424,39.4699664 C106.878424,41.1407977 106.577126,42.5103316 105.947141,43.6333494 C105.317155,44.7563671 104.522826,45.6602595 103.536761,46.3998078 C101.783758,47.6871696 99.4829409,48.3445459 96.6890918,48.3445459 C95.0182605,48.3445459 93.7308986,47.9610764 92.7996156,47.1667468 C91.8683325,46.3998078 91.402691,45.3315714 91.402691,43.9894282 C91.402691,43.1129265 91.5396444,42.3185968 91.7861605,41.5790485 C92.0326766,40.8668909 92.5530995,40.2095147 93.2926478,39.6617011 C94.0321961,39.1138876 95.1278232,38.6756367 96.5247477,38.2921672 C97.9216723,37.9360884 99.7568477,37.6895723 102.030274,37.5800096 L106.851033,37.3334935 L106.851033,39.4699664 L106.878424,39.4699664 Z M107.097549,55.4935127 L117.369053,55.4935127 L117.369053,29.8558385 C117.369053,27.3632869 117.067756,25.1172513 116.465161,23.1451225 C115.862566,21.1456031 114.903892,19.4473811 113.58914,18.0504565 C112.274387,16.653532 110.521384,15.5852955 108.33013,14.8183566 C106.166266,14.0788083 103.50937,13.6953388 100.414224,13.6953388 C95.3469486,13.6953388 91.2931283,14.6540125 88.2801538,16.5439692 C85.2671792,18.433926 83.4046132,21.5016819 82.6924556,25.7472369 L92.6352715,26.6785199 C93.2652571,23.4190293 95.7304181,21.7755887 100.030754,21.7755887 C101.893321,21.7755887 103.50937,22.2412302 104.878904,23.1725132 C106.248438,24.1037963 106.933205,25.8020183 106.933205,28.2945699 L106.933205,30.3214801 L101.728976,30.5679962 C99.1268621,30.6775589 96.5795291,30.924075 94.0869774,31.3349351 C91.5670351,31.7457953 89.3209995,32.4579529 87.2940894,33.4440173 C85.2671792,34.4300817 83.6511293,35.7996156 82.3911581,37.5526189 C81.1585776,39.3056223 80.528592,41.6064392 80.528592,44.4002883 C80.528592,46.5367612 80.8846708,48.3445459 81.6242191,49.8784238 C82.3363767,51.4123018 83.3224411,52.6722729 84.5276309,53.6583373 C85.7328208,54.6444017 87.157136,55.3565593 88.8005766,55.8222009 C90.4440173,56.2878424 92.1422393,56.5343585 93.9774147,56.5343585 C97.1273426,56.5343585 99.7020663,55.9591543 101.701586,54.8361365 C103.701105,53.685728 105.50889,52.2340221 107.097549,50.3988467 L107.097549,55.4935127 L107.097549,55.4935127 Z M49.9879865,30.7049495 C50.0427679,29.4723691 50.2618933,28.3219606 50.7001442,27.2537242 C51.1110043,26.1854877 51.6862086,25.2542047 52.4531475,24.4598751 C53.1926958,23.6655454 54.1239789,23.0355598 55.219606,22.5425276 C56.3152331,22.0768861 57.5752042,21.83037 59.0269101,21.83037 C61.930322,21.83037 64.0667948,22.597309 65.4363287,24.1585776 C66.8058626,25.7198462 67.4906295,27.8837098 67.4906295,30.6775589 L49.9879865,30.6775589 L49.9879865,30.7049495 Z M66.9154253,42.811629 C66.1484863,46.4271985 63.6011533,48.2623739 59.3008169,48.2623739 C56.2056704,48.2623739 53.8500721,47.3310908 52.3161941,45.4959154 C50.7549255,43.66074 49.9332052,41.113407 49.8236425,37.8539164 L77.9538683,37.8539164 L77.9538683,33.4987987 C77.9538683,27.4454589 76.3925997,22.6246997 73.2426718,19.0365209 C70.1201346,15.4483421 65.4363287,13.6679481 59.2186449,13.6679481 C56.2056704,13.6679481 53.4666026,14.1609803 50.9740509,15.0922633 C48.4814993,16.050937 46.3450264,17.4752523 44.5646324,19.3378184 C42.7842383,21.2003844 41.3873138,23.4738107 40.4012494,26.1307064 C39.415185,28.7876021 38.9221528,31.855358 38.9221528,35.251802 C38.9221528,42.0994714 40.6203748,47.3858722 44.0168188,51.1110043 C47.4132629,54.8361365 52.4805382,56.6987025 59.2186449,56.6987025 C64.8063431,56.6987025 69.0792888,55.5209034 72.0100913,53.1653051 C74.9408938,50.8097069 76.7486785,47.3584815 77.4882268,42.7842383 L66.9154253,42.7842383 L66.9154253,42.811629 Z M0,55.4935127 L36.5939452,55.4935127 L37.8265257,45.5506968 L11.5862566,45.5506968 L11.5862566,-3.55271368e-15 L0,-3.55271368e-15 L0,55.4935127 Z" id="Shape"></path>
                </g>
            </g>
        </g>
    </g>
</svg>

<svg width="228" height="56.7" xmlns="http://www.w3.org/2000/svg"><g id="Page-1" stroke="none" stroke-width="1" fill="none" fill-rule="evenodd"><g id="index-copy-9" transform="translate(-100 -70)" fill="#000" fill-rule="nonzero"><g id="nav" transform="translate(0 70)"><g id="Leamo-Logo" transform="translate(100)"><path d="M200.527 44.729c-1.506-2.191-2.246-5.396-2.246-9.587 0-4.136.767-7.313 2.3-9.477 1.535-2.164 3.836-3.26 6.958-3.26 3.095 0 5.424 1.096 6.957 3.26 1.534 2.164 2.301 5.341 2.301 9.477s-.767 7.34-2.3 9.56c-1.534 2.218-3.835 3.341-6.958 3.341-3.177-.027-5.533-1.123-7.012-3.314m15.448 10.518c2.548-.986 4.712-2.41 6.492-4.273 1.78-1.863 3.15-4.136 4.109-6.793.958-2.657 1.424-5.697 1.424-9.066 0-3.314-.466-6.3-1.397-8.984-.931-2.657-2.3-4.93-4.081-6.766-1.78-1.835-3.944-3.26-6.492-4.245-2.547-.986-5.396-1.48-8.546-1.48-3.095 0-5.943.494-8.463 1.48-2.548.986-4.712 2.41-6.492 4.245-1.78 1.835-3.15 4.081-4.109 6.766-.958 2.657-1.424 5.67-1.424 8.984 0 6.93 1.78 12.27 5.369 15.996 3.588 3.725 8.628 5.588 15.147 5.588 3.095.027 5.944-.466 8.463-1.452m-92.47.247h10.874V31.088c0-1.177.219-2.3.657-3.314.438-1.013 1.013-1.89 1.753-2.602.877-.876 1.78-1.506 2.684-1.863a8.151 8.151 0 0 1 2.986-.547c.685 0 1.315.11 1.945.301.63.22 1.15.575 1.588 1.096.439.52.795 1.232 1.041 2.136.247.904.384 2.082.384 3.533v25.666h10.874V30.623c0-1.041.219-2.027.657-2.958a8.743 8.743 0 0 1 1.753-2.493c.877-.876 1.78-1.506 2.684-1.863a8.151 8.151 0 0 1 2.986-.547c.685 0 1.315.11 1.945.301.63.22 1.15.575 1.588 1.096.439.52.795 1.232 1.041 2.136.247.904.384 2.082.384 3.533v25.666h10.874V28.377c0-5.177-1.041-8.93-3.15-11.23-2.11-2.301-5.26-3.452-9.45-3.452-2.492 0-4.766.548-6.848 1.644-2.081 1.095-4.053 2.876-5.916 5.368-.767-2.273-2.11-4.026-3.972-5.204s-4.273-1.78-7.23-1.78c-2.22 0-4.356.548-6.383 1.643-2.027 1.096-3.78 2.767-5.286 5.04v-5.478h-10.573v40.566h.11ZM106.878 39.47c0 1.67-.3 3.04-.93 4.163a8.72 8.72 0 0 1-2.411 2.767c-1.753 1.287-4.054 1.945-6.848 1.945-1.67 0-2.958-.384-3.89-1.178-.93-.767-1.396-1.835-1.396-3.178 0-.876.137-1.67.383-2.41.247-.712.767-1.37 1.507-1.917.74-.548 1.835-.986 3.232-1.37 1.397-.356 3.232-.602 5.505-.712l4.821-.247v2.137h.027Zm.22 16.024h10.271V29.856c0-2.493-.301-4.739-.904-6.71-.602-2-1.561-3.699-2.876-5.096-1.315-1.396-3.068-2.465-5.259-3.232-2.164-.74-4.82-1.123-7.916-1.123-5.067 0-9.12.959-12.134 2.849-3.013 1.89-4.875 4.958-5.588 9.203l9.943.932c.63-3.26 3.095-4.903 7.396-4.903 1.862 0 3.478.465 4.848 1.397 1.37.93 2.054 2.629 2.054 5.122v2.026l-5.204.247c-2.602.11-5.15.356-7.642.767-2.52.41-4.766 1.123-6.793 2.109s-3.643 2.356-4.903 4.109c-1.232 1.753-1.862 4.053-1.862 6.847 0 2.137.356 3.945 1.095 5.478.712 1.534 1.698 2.794 2.904 3.78 1.205.986 2.63 1.699 4.273 2.164a18.76 18.76 0 0 0 5.176.712c3.15 0 5.725-.575 7.725-1.698 2-1.15 3.807-2.602 5.396-4.437v5.095Zm-57.11-24.79c.055-1.232.274-2.382.712-3.45.411-1.069.986-2 1.753-2.794.74-.794 1.671-1.424 2.767-1.917 1.095-.466 2.355-.713 3.807-.713 2.903 0 5.04.767 6.41 2.329 1.369 1.56 2.054 3.725 2.054 6.519H49.988v.027Zm16.927 12.108c-.767 3.615-3.314 5.45-7.614 5.45-3.095 0-5.45-.93-6.985-2.766-1.561-1.835-2.383-4.383-2.492-7.642h28.13v-4.355c0-6.054-1.561-10.874-4.711-14.462-3.123-3.589-7.807-5.37-14.024-5.37-3.013 0-5.752.494-8.245 1.425-2.493.959-4.629 2.383-6.41 4.246-1.78 1.862-3.177 4.136-4.163 6.793-.986 2.657-1.479 5.724-1.479 9.12 0 6.848 1.698 12.135 5.095 15.86 3.396 3.725 8.464 5.588 15.202 5.588 5.587 0 9.86-1.178 12.791-3.534 2.93-2.355 4.739-5.807 5.478-10.38H66.915v.027ZM0 55.494h36.594l1.233-9.943h-26.24V0H0v55.494Z" id="Shape"/></g></g></g></g></svg>
